X:25
T:French in Confusion,The. TJD.25
M:2/4
L:1/8
Q:1/4=120
S:T.J.Dixon MS1, Lincolnshire, 1798
R:country dance
A:Lincolnshire, Holton le Moor
Z:vmp.R.Greig2010
K:G
GBdg|”_quaver in MS”d’2ag|fdcB|”_quaver in MS”c2AA|GBdg|d’2ag|ecBA|G2g2|!
“_quaver in MS”B2dg|Bdgd|BdcB|cAA2|Bdgd|Bdgd|agdf|gGG2|]

